X: 1
T: Parkgate
C: Antony Baldwin (2007)
R: reel
Z: 2007 John Chambers <jc:trillian.mit.edu>
M: 2/4
L: 1/16
K: D
   A2 \
| "D"d2A2 FDFA | "G"d2d2 d3d \
| "A7"e2e2 e2fg | "D"fed2 z2f2 \
| "F#m"e2dc "E7"edcB | "A"c2d2 e2a2 \
| "A"c2BA "E7"B2A^G | "A"A6 :|
|: A2 \
| "A"e2A2 e2f2 | "Em"g6 fe \
| "G"d2G2 "A"d2fe | "D"f6 f2 \
| "Em"e2gf edcB | "A7"A2c2 d2e2 \
| "D"A2d2 "A7"e2dc | "D"d6 :|

%%sep 1 1 500
%%sep 1 1 500

